Catalina-light/mimetypes/scalable/image-bmp.svg

<?xml version="1.0" encoding="UTF-8" standalone="no"?>
<!-- Created with Inkscape (http://www.inkscape.org/) -->

<svg
   xmlns:dc="http://purl.org/dc/elements/1.1/"
   xmlns:cc="http://creativecommons.org/ns#"
   xmlns:rdf="http://www.w3.org/1999/02/22-rdf-syntax-ns#"
   xmlns:svg="http://www.w3.org/2000/svg"
   xmlns="http://www.w3.org/2000/svg"
   xmlns:xlink="http://www.w3.org/1999/xlink"
   xmlns:sodipodi="http://sodipodi.sourceforge.net/DTD/sodipodi-0.dtd"
   xmlns:inkscape="http://www.inkscape.org/namespaces/inkscape"
   width="128"
   height="128"
   viewBox="0 0 33.866666 33.866668"
   version="1.1"
   id="svg8"
   inkscape:version="0.92.2 5c3e80d, 2017-08-06"
   sodipodi:docname="image-jpeg copy.svg">
  <defs
     id="defs2">
    <linearGradient
       y2="504.1911"
       y1="542.79797"
       x2="409.93887"
       x1="409.57144"
       gradientUnits="userSpaceOnUse"
       gradientTransform="matrix(0.74526309,0,0,0.72775693,-332.40982,-101.19594)"
       id="b-5">
      <stop
         id="stop15"
         stop-color="#86d0fb"
         offset="0"
         style="stop-color:#e55b5b;stop-opacity:1" />
      <stop
         id="stop17"
         stop-color="#2794f5"
         offset="1"
         style="stop-color:#d93737;stop-opacity:1" />
    </linearGradient>
    <linearGradient
       inkscape:collect="always"
       xlink:href="#b-5"
       id="linearGradient931"
       x1="15.137993"
       y1="271.15045"
       x2="15.147798"
       y2="286.32336"
       gradientUnits="userSpaceOnUse" />
  </defs>
  <sodipodi:namedview
     id="base"
     pagecolor="#ffffff"
     bordercolor="#666666"
     borderopacity="1.0"
     inkscape:pageopacity="0.0"
     inkscape:pageshadow="2"
     inkscape:zoom="1.1349467"
     inkscape:cx="-95.485792"
     inkscape:cy="53.894227"
     inkscape:document-units="mm"
     inkscape:current-layer="layer1"
     showgrid="false"
     inkscape:window-width="1600"
     inkscape:window-height="792"
     inkscape:window-x="0"
     inkscape:window-y="0"
     inkscape:window-maximized="1"
     units="px"
     showguides="false" />
  <metadata
     id="metadata5">
    <rdf:RDF>
      <cc:Work
         rdf:about="">
        <dc:format>image/svg+xml</dc:format>
        <dc:type
           rdf:resource="http://purl.org/dc/dcmitype/StillImage" />
        <dc:title></dc:title>
      </cc:Work>
    </rdf:RDF>
  </metadata>
  <g
     inkscape:label="Layer 1"
     inkscape:groupmode="layer"
     id="layer1"
     transform="translate(0,-263.13332)">
    <g
       style="opacity:0.25;fill:#000000;stroke-width:0.80876845"
       transform="matrix(1.2364425,0,0,1.2364533,0.291313,-65.0167)"
       id="g869">
      <rect
         y="268.64136"
         x="0.28721386"
         height="21.441429"
         width="26.705799"
         id="rect863"
         style="opacity:1;fill:#000000;fill-opacity:1;stroke:none;stroke-width:0.74491382;stroke-miterlimit:4;stroke-dasharray:none;stroke-opacity:1"
         transform="rotate(0.0370229)" />
      <rect
         style="opacity:1;fill:#000000;fill-opacity:1;stroke:none;stroke-width:0.69205528;stroke-miterlimit:4;stroke-dasharray:none;stroke-opacity:1"
         id="rect865"
         width="24.858364"
         height="19.881824"
         x="1.140329"
         y="269.45447"
         transform="rotate(0.0370229)" />
      <path
         style="opacity:1;fill:#000000;fill-opacity:1;stroke:none;stroke-width:0.69205534;stroke-miterlimit:4;stroke-dasharray:none;stroke-opacity:1"
         d="m 0.95899542,280.67895 -0.005595,8.658 24.85831858,0.0161 0.0056,-8.65801 z"
         id="path867"
         inkscape:connector-curvature="0" />
    </g>
    <rect
       y="266.60446"
       x="0.60407501"
       height="26.511324"
       width="33.020184"
       id="rect830"
       style="opacity:1;fill:#ececec;fill-opacity:1;stroke:#999999;stroke-width:0.30000001;stroke-miterlimit:4;stroke-dasharray:none;stroke-opacity:1"
       transform="rotate(0.03702323)" />
    <rect
       style="opacity:1;fill:url(#linearGradient931);fill-opacity:1;stroke:none;stroke-width:0.85569018;stroke-miterlimit:4;stroke-dasharray:none;stroke-opacity:1"
       id="rect826"
       width="30.735935"
       height="24.582947"
       x="1.6588931"
       y="267.60983"
       transform="rotate(0.03702323)" />
    <path
       style="opacity:1;fill:#202026;fill-opacity:1;stroke:none;stroke-width:3.23410463;stroke-miterlimit:4;stroke-dasharray:none;stroke-opacity:1"
       d="M 20.496094 58.832031 L 5.5800781 74.4375 L 5.5566406 109.83398 L 67.417969 109.875 L 20.496094 58.832031 z "
       transform="matrix(0.26458333,0,0,0.26458333,0,263.13332)"
       id="rect922" />
    <g
       id="g39"
       style="fill:#ffffff;fill-opacity:0.85204103;stroke-width:0.39860967"
       transform="matrix(0.85563348,0,0,0.85563348,-42.765796,-597.78947)" />
    <path
       style="opacity:1;fill:#31313b;fill-opacity:1;stroke:none;stroke-width:3.23410463;stroke-miterlimit:4;stroke-dasharray:none;stroke-opacity:1"
       d="M 63.669922 39.007812 L 5.5625 99.802734 L 5.5566406 109.83398 L 121.72266 109.91016 L 121.72852 102.16406 L 63.669922 39.007812 z "
       id="rect915"
       transform="matrix(0.26458333,0,0,0.26458333,0,263.13332)" />
    <path
       style="opacity:1;fill:#3f3f4d;fill-opacity:1;stroke:none;stroke-width:3.23410463;stroke-miterlimit:4;stroke-dasharray:none;stroke-opacity:1"
       d="M 113.45117 59.273438 L 65.087891 109.87305 L 121.72266 109.91016 L 121.75 68.300781 L 113.45117 59.273438 z "
       transform="matrix(0.26458333,0,0,0.26458333,0,263.13332)"
       id="rect908" />
    <path
       id="path970"
       d="m 8.7804705,270.26839 c 1.7809285,0 3.2247135,1.44378 3.2247135,3.2247 0,1.78093 -1.443785,3.22472 -3.2247135,3.22472 -1.780927,0 -3.224713,-1.44379 -3.224713,-3.22472 0,-1.78092 1.443786,-3.2247 3.224713,-3.2247 z"
       style="fill:#eecc66;fill-opacity:1;fill-rule:evenodd;stroke-width:0.26458335"
       inkscape:connector-curvature="0" />
  </g>
</svg>

<svg width="128" height="128" version="1.1" viewBox="0 0 33.867 33.867" xmlns="http://www.w3.org/2000/svg">
<defs>
<linearGradient id="linearGradient931" x1="15.138" x2="15.148" y1="271.15" y2="286.32" gradientUnits="userSpaceOnUse"/>
</defs>
<g transform="translate(0 -263.13)">
<g transform="matrix(1.2364 0 0 1.2365 .29131 -65.017)" opacity=".25" stroke-width=".80877">
<rect transform="rotate(.037023)" x=".28721" y="268.64" width="26.706" height="21.441" opacity="1"/>
<rect transform="rotate(.037023)" x="1.1403" y="269.45" width="24.858" height="19.882" opacity="1"/>
<path d="m0.959 280.68-0.005595 8.658 24.858 0.0161 0.0056-8.658z" opacity="1"/>
</g>
<rect transform="rotate(.037023)" x=".60408" y="266.6" width="33.02" height="26.511" fill="#ececec" stroke="#999" stroke-width=".3"/>
<rect transform="rotate(.037023)" x="1.6589" y="267.61" width="30.736" height="24.583" fill="url(#linearGradient931)"/>
<path transform="matrix(.26458 0 0 .26458 0 263.13)" d="m20.496 58.832-14.916 15.605-0.023438 35.396 61.861 0.04102-46.922-51.043z" fill="#202026"/>
<path transform="matrix(.26458 0 0 .26458 0 263.13)" d="m63.67 39.008-58.107 60.795-0.0058594 10.031 116.17 0.07618 0.00586-7.7461-58.059-63.156z" fill="#31313b"/>
<path transform="matrix(.26458 0 0 .26458 0 263.13)" d="m113.45 59.273-48.363 50.6 56.635 0.03711 0.02734-41.609-8.2988-9.0273z" fill="#3f3f4d"/>
<path d="m8.7805 270.27c1.7809 0 3.2247 1.4438 3.2247 3.2247 0 1.7809-1.4438 3.2247-3.2247 3.2247-1.7809 0-3.2247-1.4438-3.2247-3.2247 0-1.7809 1.4438-3.2247 3.2247-3.2247z" fill="#ec6" fill-rule="evenodd" stroke-width=".26458"/>
</g>
</svg>
